third_party/noto/noto_2/emoji_u1f51d.svg

<svg enable-background="new 0 0 128 128" version="1.1" viewBox="0 0 128 128" xmlns="http://www.w3.org/2000/svg"><path d="m116 4h-104c-4.42 0-8 3.58-8 8v104c0 4.42 3.58 8 8 8h104c4.42 0 8-3.58 8-8v-104c0-4.42-3.58-8-8-8z" fill="#427687"/><path d="m109.7 4h-98.2c-4.13 0.03-7.47 3.37-7.5 7.5v97.9c-0.01 4.14 3.34 7.49 7.48 7.5h0.02 98.1c4.14 0.01 7.49-3.34 7.5-7.48v-0.02-97.9c0.09-4.05-3.13-7.41-7.18-7.5h-0.22z" fill="#8CAFBF"/><path d="m91 41.4-24-24c-1.46-1.66-3.99-1.82-5.65-0.35-0.13 0.11-0.24 0.23-0.35 0.35l-24 24c-1.44 1.68-1.24 4.2 0.44 5.64 0.71 0.61 1.62 0.95 2.56 0.96h14c1.1 0 2 0.9 2 2v22c0 2.21 1.79 4 4 4h8c2.21 0 4-1.79 4-4v-22c0-1.1 0.9-2 2-2h14c2.21-0.02 3.98-1.83 3.96-4.04-0.01-0.94-0.35-1.85-0.96-2.56z" fill="#FAFAFA"/><path d="m39.7 12.9c0-2.3-1.6-3-10.8-2.7-7.7 0.3-11.5 1.2-13.8 4s-2.9 8.5-3 15.3c0 4.8 0 9.3 2.5 9.3 3.4 0 3.4-7.9 6.2-12.3 5.4-8.7 18.9-10.6 18.9-13.6z" enable-background="new" fill="#B4E1ED" opacity=".5"/><g fill="#FAFAFA"><path d="M37.37,111.67h-5.9V88.74H23.9v-4.91h21.02v4.91h-7.56V111.67z"/><path d="m76.05 97.71c0 4.61-1.14 8.15-3.43 10.63s-5.56 3.71-9.83 3.71-7.54-1.24-9.83-3.71-3.43-6.03-3.43-10.66 1.15-8.17 3.44-10.62c2.29-2.44 5.58-3.67 9.85-3.67s7.55 1.23 9.82 3.69c2.28 2.47 3.41 6.01 3.41 10.63zm-20.32 0c0 3.11 0.59 5.45 1.77 7.03s2.95 2.36 5.29 2.36c4.71 0 7.07-3.13 7.07-9.39 0-6.27-2.34-9.41-7.03-9.41-2.35 0-4.12 0.79-5.31 2.37-1.19 1.59-1.79 3.93-1.79 7.04z"/><path d="m102.03 92.51c0 3-0.94 5.29-2.81 6.88s-4.54 2.38-7.99 2.38h-2.53v9.9h-5.9v-27.84h8.89c3.38 0 5.95 0.73 7.7 2.18 1.76 1.45 2.64 3.62 2.64 6.5zm-13.33 4.42h1.94c1.82 0 3.17-0.36 4.08-1.08 0.9-0.72 1.35-1.76 1.35-3.13 0-1.38-0.38-2.41-1.13-3.07-0.76-0.65-1.94-0.98-3.56-0.98h-2.68v8.26z"/></g></svg>

<?xml version="1.0" encoding="utf-8"?>
<!-- Generator: Adobe Illustrator 25.2.3, SVG Export Plug-In . SVG Version: 6.00 Build 0)  -->
<svg version="1.1" id="Layer_2" xmlns="http://www.w3.org/2000/svg" xmlns:xlink="http://www.w3.org/1999/xlink" x="0px" y="0px"
	 viewBox="0 0 128 128" style="enable-background:new 0 0 128 128;" xml:space="preserve">
<g>
	<path style="fill:#427687;" d="M116,4H12c-4.42,0-8,3.58-8,8v104c0,4.42,3.58,8,8,8h104c4.42,0,8-3.58,8-8V12
		C124,7.58,120.42,4,116,4z"/>
	<path style="fill:#8CAFBF;" d="M109.7,4H11.5C7.37,4.03,4.03,7.37,4,11.5v97.9c-0.01,4.14,3.34,7.49,7.48,7.5c0.01,0,0.01,0,0.02,0
		h98.1c4.14,0.01,7.49-3.34,7.5-7.48c0-0.01,0-0.01,0-0.02V11.5c0.09-4.05-3.13-7.41-7.18-7.5C109.85,4,109.77,4,109.7,4z"/>
	<path style="fill:#FAFAFA;" d="M91,41.4l-24-24c-1.46-1.66-3.99-1.82-5.65-0.35c-0.13,0.11-0.24,0.23-0.35,0.35l-24,24
		c-1.44,1.68-1.24,4.2,0.44,5.64c0.71,0.61,1.62,0.95,2.56,0.96h14c1.1,0,2,0.9,2,2v22c0,2.21,1.79,4,4,4h8c2.21,0,4-1.79,4-4V50
		c0-1.1,0.9-2,2-2h14c2.21-0.02,3.98-1.83,3.96-4.04C91.95,43.02,91.61,42.11,91,41.4z"/>
	<path style="opacity:0.5;fill:#B4E1ED;enable-background:new    ;" d="M39.7,12.9c0-2.3-1.6-3-10.8-2.7c-7.7,0.3-11.5,1.2-13.8,4
		s-2.9,8.5-3,15.3c0,4.8,0,9.3,2.5,9.3c3.4,0,3.4-7.9,6.2-12.3C26.2,17.8,39.7,15.9,39.7,12.9z"/>
</g>
<g>
	<path style="fill:#FAFAFA;" d="M37.37,111.67h-5.9V88.74H23.9v-4.91h21.02v4.91h-7.56V111.67z"/>
	<path style="fill:#FAFAFA;" d="M76.05,97.71c0,4.61-1.14,8.15-3.43,10.63s-5.56,3.71-9.83,3.71s-7.54-1.24-9.83-3.71
		s-3.43-6.03-3.43-10.66s1.15-8.17,3.44-10.62c2.29-2.44,5.58-3.67,9.85-3.67s7.55,1.23,9.82,3.69
		C74.92,89.55,76.05,93.09,76.05,97.71z M55.73,97.71c0,3.11,0.59,5.45,1.77,7.03s2.95,2.36,5.29,2.36c4.71,0,7.07-3.13,7.07-9.39
		c0-6.27-2.34-9.41-7.03-9.41c-2.35,0-4.12,0.79-5.31,2.37C56.33,92.26,55.73,94.6,55.73,97.71z"/>
	<path style="fill:#FAFAFA;" d="M102.03,92.51c0,3-0.94,5.29-2.81,6.88c-1.87,1.59-4.54,2.38-7.99,2.38H88.7v9.9h-5.9V83.83h8.89
		c3.38,0,5.95,0.73,7.7,2.18C101.15,87.46,102.03,89.63,102.03,92.51z M88.7,96.93h1.94c1.82,0,3.17-0.36,4.08-1.08
		c0.9-0.72,1.35-1.76,1.35-3.13c0-1.38-0.38-2.41-1.13-3.07C94.18,89,93,88.67,91.38,88.67H88.7V96.93z"/>
</g>
</svg>
